logos/thepeer/thepeer.svg

<svg width="10255" height="3203" fill="none" xmlns="http://www.w3.org/2000/svg"><path d="M844.115 270c69.281-120 242.485-120 311.765 0l554.26 960c69.28 120-17.32 270-155.88 270H445.743c-138.564 0-225.167-150-155.885-270l554.257-960z" fill="#06F"/><path d="M1820.88 2933c-69.28 120-242.48 120-311.76 0l-554.261-960c-69.282-120 17.321-270 155.881-270h1108.52c138.56 0 225.16 150 155.88 270l-554.26 960z" fill="#99C2FF"/><path d="M3612 1492h-248v480c0 41.33 9.33 71.33 28 90 18.67 17.33 46 27.33 82 30 37.33 1.33 83.33.67 138-2v194c-165.33 20-284 6-356-42-72-49.33-108-139.33-108-270v-480h-184v-208h184v-216l216-64v280h248v208zm721.91-234c114.66 0 207.33 36.67 278 110 70.66 73.33 106 174 106 302v614h-216v-592c0-74.67-20-132-60-172s-94.67-60-164-60c-76 0-137.34 24-184 72-46.67 46.67-70 118.67-70 216v536h-216V884h216v528c65.33-102.67 168.66-154 310-154zm786.57 618c16 76 52.67 134.67 110 176 57.34 40 127.34 60 210 60 114.67 0 200.67-41.33 258-124l178 104c-98.66 145.33-244.66 218-438 218-162.66 0-294-49.33-394-148-100-100-150-226-150-378 0-149.33 49.34-274 148-374 98.67-101.33 225.34-152 380-152 146.67 0 266.67 51.33 360 154 94.67 102.67 142 227.33 142 374 0 22.67-2.66 52.67-8 90h-796zm-2-176h588c-14.66-81.33-48.66-142.67-102-184-52-41.33-113.33-62-184-62-80 0-146.66 22-200 66-53.33 44-87.33 104-102 180zm1562.07-442c137.33 0 254.66 51.33 352 154 97.33 101.33 146 225.33 146 372 0 148-48.67 272.67-146 374-97.34 101.33-214.67 152-352 152-152 0-268.67-56-350-168v542h-216V1284h216v144c81.33-113.33 198-170 350-170zm-260 756c60 60 135.33 90 226 90 90.66 0 166-30 226-90 60-61.33 90-138 90-230s-30-168-90-228c-60-61.33-135.34-92-226-92-90.67 0-166 30.67-226 92-60 60-90 136-90 228s30 168.67 90 230zm1123.76-138c16 76 52.67 134.67 110 176 57.34 40 127.34 60 210 60 114.67 0 200.67-41.33 258-124l178 104c-98.66 145.33-244.66 218-438 218-162.66 0-294-49.33-394-148-100-100-150-226-150-378 0-149.33 49.34-274 148-374 98.67-101.33 225.34-152 380-152 146.67 0 266.67 51.33 360 154 94.67 102.67 142 227.33 142 374 0 22.67-2.66 52.67-8 90h-796zm-2-176h588c-14.66-81.33-48.66-142.67-102-184-52-41.33-113.33-62-184-62-80 0-146.66 22-200 66-53.33 44-87.33 104-102 180zm1160.21 176c16 76 52.66 134.67 110 176 57.33 40 127.33 60 210 60 114.66 0 200.66-41.33 258-124l178 104c-98.67 145.33-244.67 218-438 218-162.67 0-294-49.33-394-148-100-100-150-226-150-378 0-149.33 49.33-274 148-374 98.66-101.33 225.33-152 380-152 146.66 0 266.66 51.33 360 154 94.66 102.67 142 227.33 142 374 0 22.67-2.67 52.67-8 90h-796zm-2-176h588c-14.67-81.33-48.67-142.67-102-184-52-41.33-113.34-62-184-62-80 0-146.67 22-200 66-53.34 44-87.34 104-102 180zm1212.06-248c54.66-124 157.32-186 308.02-186v234c-82.7-5.33-154.7 14.67-216 60-61.36 44-92.02 117.33-92.02 220v504h-216V1284h216v168z" fill="#24366B"/></svg>

<svg width="10255" height="3203" viewBox="0 0 10255 3203" fill="none" xmlns="http://www.w3.org/2000/svg">
<path d="M844.115 270C913.396 150 1086.6 150 1155.88 270L1710.14 1230C1779.42 1350 1692.82 1500 1554.26 1500H445.743C307.179 1500 220.576 1350 289.858 1230L844.115 270Z" fill="#0066FF"/>
<path d="M1820.88 2933C1751.6 3053 1578.4 3053 1509.12 2933L954.859 1973C885.577 1853 972.18 1703 1110.74 1703H2219.26C2357.82 1703 2444.42 1853 2375.14 1973L1820.88 2933Z" fill="#99C2FF"/>
<path d="M3612 1492H3364V1972C3364 2013.33 3373.33 2043.33 3392 2062C3410.67 2079.33 3438 2089.33 3474 2092C3511.33 2093.33 3557.33 2092.67 3612 2090V2284C3446.67 2304 3328 2290 3256 2242C3184 2192.67 3148 2102.67 3148 1972V1492H2964V1284H3148V1068L3364 1004V1284H3612V1492ZM4333.91 1258C4448.57 1258 4541.24 1294.67 4611.91 1368C4682.57 1441.33 4717.91 1542 4717.91 1670V2284H4501.91V1692C4501.91 1617.33 4481.91 1560 4441.91 1520C4401.91 1480 4347.24 1460 4277.91 1460C4201.91 1460 4140.57 1484 4093.91 1532C4047.24 1578.67 4023.91 1650.67 4023.91 1748V2284H3807.91V884H4023.91V1412C4089.24 1309.33 4192.57 1258 4333.91 1258ZM5120.48 1876C5136.48 1952 5173.15 2010.67 5230.48 2052C5287.82 2092 5357.82 2112 5440.48 2112C5555.15 2112 5641.15 2070.67 5698.48 1988L5876.48 2092C5777.82 2237.33 5631.82 2310 5438.48 2310C5275.82 2310 5144.48 2260.67 5044.48 2162C4944.48 2062 4894.48 1936 4894.48 1784C4894.48 1634.67 4943.82 1510 5042.48 1410C5141.15 1308.67 5267.82 1258 5422.48 1258C5569.15 1258 5689.15 1309.33 5782.48 1412C5877.15 1514.67 5924.48 1639.33 5924.48 1786C5924.48 1808.67 5921.82 1838.67 5916.48 1876H5120.48ZM5118.48 1700H5706.48C5691.82 1618.67 5657.82 1557.33 5604.48 1516C5552.48 1474.67 5491.15 1454 5420.48 1454C5340.48 1454 5273.82 1476 5220.48 1520C5167.15 1564 5133.15 1624 5118.48 1700ZM6680.55 1258C6817.88 1258 6935.21 1309.33 7032.55 1412C7129.88 1513.33 7178.55 1637.33 7178.55 1784C7178.55 1932 7129.88 2056.67 7032.55 2158C6935.21 2259.33 6817.88 2310 6680.55 2310C6528.55 2310 6411.88 2254 6330.55 2142V2684H6114.55V1284H6330.55V1428C6411.88 1314.67 6528.55 1258 6680.55 1258ZM6420.55 2014C6480.55 2074 6555.88 2104 6646.55 2104C6737.21 2104 6812.55 2074 6872.55 2014C6932.55 1952.67 6962.55 1876 6962.55 1784C6962.55 1692 6932.55 1616 6872.55 1556C6812.55 1494.67 6737.21 1464 6646.55 1464C6555.88 1464 6480.55 1494.67 6420.55 1556C6360.55 1616 6330.55 1692 6330.55 1784C6330.55 1876 6360.55 1952.67 6420.55 2014ZM7544.31 1876C7560.31 1952 7596.98 2010.67 7654.31 2052C7711.65 2092 7781.65 2112 7864.31 2112C7978.98 2112 8064.98 2070.67 8122.31 1988L8300.31 2092C8201.65 2237.33 8055.65 2310 7862.31 2310C7699.65 2310 7568.31 2260.67 7468.31 2162C7368.31 2062 7318.31 1936 7318.31 1784C7318.31 1634.67 7367.65 1510 7466.31 1410C7564.98 1308.67 7691.65 1258 7846.31 1258C7992.98 1258 8112.98 1309.33 8206.31 1412C8300.98 1514.67 8348.31 1639.33 8348.31 1786C8348.31 1808.67 8345.65 1838.67 8340.31 1876H7544.31ZM7542.31 1700H8130.31C8115.65 1618.67 8081.65 1557.33 8028.31 1516C7976.31 1474.67 7914.98 1454 7844.31 1454C7764.31 1454 7697.65 1476 7644.31 1520C7590.98 1564 7556.98 1624 7542.31 1700ZM8702.52 1876C8718.52 1952 8755.18 2010.67 8812.52 2052C8869.85 2092 8939.85 2112 9022.52 2112C9137.18 2112 9223.18 2070.67 9280.52 1988L9458.52 2092C9359.85 2237.33 9213.85 2310 9020.52 2310C8857.85 2310 8726.52 2260.67 8626.52 2162C8526.52 2062 8476.52 1936 8476.52 1784C8476.52 1634.67 8525.85 1510 8624.52 1410C8723.18 1308.67 8849.85 1258 9004.52 1258C9151.18 1258 9271.18 1309.33 9364.52 1412C9459.18 1514.67 9506.52 1639.33 9506.52 1786C9506.52 1808.67 9503.85 1838.67 9498.52 1876H8702.52ZM8700.52 1700H9288.52C9273.85 1618.67 9239.85 1557.33 9186.52 1516C9134.52 1474.67 9073.18 1454 9002.52 1454C8922.52 1454 8855.85 1476 8802.52 1520C8749.18 1564 8715.18 1624 8700.52 1700ZM9912.58 1452C9967.24 1328 10069.9 1266 10220.6 1266V1500C10137.9 1494.67 10065.9 1514.67 10004.6 1560C9943.24 1604 9912.58 1677.33 9912.58 1780V2284H9696.58V1284H9912.58V1452Z" fill="#24366B"/>
</svg>
